packages/astro-components-stencil/src/icons/kitchen.svg

<svg xmlns="http://www.w3.org/2000/svg" viewBox="0 0 24 24"><g xmlns="http://www.w3.org/2000/svg" id="kitchen" fill-rule="nonzero">
            <path d="M18 2.01L6 2a2 2 0 00-2 2v16c0 1.1.9 2 2 2h12c1.1 0 2-.9 2-2V4c0-1.11-.9-1.99-2-1.99zM17 20H7c-.55 0-1-.45-1-1v-7.02c0-.55.45-1 1-1h10c.55 0 1 .45 1 1V19c0 .55-.45 1-1 1zm0-11H7c-.55 0-1-.45-1-1V5c0-.55.45-1 1-1h10c.55 0 1 .45 1 1v3c0 .55-.45 1-1 1zM9 5c.55 0 1 .45 1 1v1c0 .55-.45 1-1 1s-1-.45-1-1V6c0-.55.45-1 1-1zm0 7c.55 0 1 .45 1 1v3c0 .55-.45 1-1 1s-1-.45-1-1v-3c0-.55.45-1 1-1z"/>
        </g></svg>

<svg width="24" height="24" viewBox="0 0 24 24" fill="none" xmlns="http://www.w3.org/2000/svg">
<path fill-rule="evenodd" clip-rule="evenodd" d="M18 2.01L6 2C4.9 2 4 2.89 4 4V20C4 21.1 4.9 22 6 22H18C19.1 22 20 21.1 20 20V4C20 2.89 19.1 2.01 18 2.01ZM17 20H7C6.45 20 6 19.55 6 19V11.98C6 11.43 6.45 10.98 7 10.98H17C17.55 10.98 18 11.43 18 11.98V19C18 19.55 17.55 20 17 20ZM7 9H17C17.55 9 18 8.55 18 8V5C18 4.45 17.55 4 17 4H7C6.45 4 6 4.45 6 5V8C6 8.55 6.45 9 7 9ZM9 5C9.55 5 10 5.45 10 6V7C10 7.55 9.55 8 9 8C8.45 8 8 7.55 8 7V6C8 5.45 8.45 5 9 5ZM10 13C10 12.45 9.55 12 9 12C8.45 12 8 12.45 8 13V16C8 16.55 8.45 17 9 17C9.55 17 10 16.55 10 16V13Z" fill="black"/>
</svg>
